!!!OTL: Wangjianglai
!!!ARE: Asia, China,ÿGuangdong Xingning
!! II, 354, 1)
!!!SCT: C1884
!!!YEM: Copyright 1995, estate of Helmut Schaffrath.
**kern
*ICvox
*Ivox
!! Mixed meters:  2/4; 3/4
*M3/4
*k[b-]
*F:
{16f
16d
16d
16f
8d
8d
8r
16g
16a
=1
16a
16g
8f
2g}
=2
*M2/4
{8a
16a
16g
8f
8g
=3
*M3/4
16g
16f
16d
16f
8d
8d
4r}
=4
*M2/4
{8d
8d
16f
16g
8g
=5
*M3/4
8d
16f
16g
16f
16d
8d
4r}
=6
*M2/4
{8f
8f
8g
16f
16d
=7
16g
16f
8d
8d
[8f
=8
2f]}
=9
{16d
16f
8f
16g
16f
8g
=10
8d
16f
16g
8d
[8d
=11
2d]}
==
!!!AGN: Xiaodiao, Wujuban
!!!AMT: irregular
!!!AIN: vox
!!!EED: Helmut Schaffrath
!!!EEV: 1.0
*-
!!!ONB: Tied note syntax fixed by Craig Sapp, 2004/05/03/
